64x64/apps/freetennis.svg

<svg xmlns="http://www.w3.org/2000/svg" width="64" height="64" version="1.1">
 <path style="opacity:0.2" d="m 32,5 c -4.601266,0.00724 -9.129842,1.1482998 -13.185157,3.3222656 -0.07603,0.136052 -0.163991,0.2661492 -0.2625,0.3882812 C 18.034593,9.346078 17.277257,9.707061 16.561718,9.659375 8.7238636,14.839438 4.0062858,23.605056 4,33 c 0.01118,2.913676 0.4770746,5.807752 1.3808594,8.577734 0.6178626,0.281332 1.1053874,0.893812 1.3015624,1.635156 0.136784,0.524906 0.116458,1.072722 -0.057422,1.547658 C 11.202317,54.650548 21.102122,60.98621 32,61 c 10.929916,0 20.397134,-6.262552 25.009124,-15.395128 1.91319,-3.788466 2.69173,-8.11355 2.69173,-12.647608 0,-4.480064 -0.753026,-8.671646 -2.62374,-12.426588 C 52.49063,11.324577 42.983908,5 32,5 Z"/>
 <path style="fill:#dee000" d="m 32,4 c -4.601266,0.00724 -9.129842,1.1482998 -13.185157,3.3222656 -0.07603,0.136052 -0.163991,0.2661492 -0.2625,0.3882812 C 18.034593,8.346078 17.277257,8.7070608 16.561718,8.659375 8.7238636,13.839438 4.0062858,22.605056 4,32 c 0.01118,2.913676 0.4770746,5.807752 1.3808594,8.577734 0.6178626,0.281332 1.1053874,0.893812 1.3015624,1.635156 0.136784,0.524906 0.116458,1.072722 -0.057422,1.547658 C 11.202317,53.650548 21.102122,59.98621 32,60 c 10.929916,0 20.397134,-6.262552 25.009124,-15.395128 1.91319,-3.788466 2.69173,-8.11355 2.69173,-12.647608 0,-4.480064 -0.753026,-8.671646 -2.62374,-12.426588 C 52.49063,10.324577 42.983908,4 32,4 Z"/>
 <path style="fill:#f4f4f7" d="M 28.538282,6.31875 C 26.409634,6.262401 22.651272,6.7266616 18.967968,7.2347656 A 28,28 0 0 0 18.814843,7.325 1.9139592,2.312583 39.073308 0 1 18.552343,7.7105468 1.9139592,2.312583 39.073308 0 1 16.575391,8.659375 28,28 0 0 0 16.405859,8.7714842 c 10.357373,-0.5609896 21.581127,0.3590508 29.033593,3.8062498 5.048694,2.335315 8.962534,5.620593 11.167188,9.947656 2.204654,4.327064 3.91419,9.836138 1.542188,16.376174 -1.957022,5.395866 -4.89235,7.796098 -8.058204,9.66875 -3.16585,1.872648 -7.524224,2.209428 -9.625,1.43828 C 32.41668,47.053998 23.872694,41.149524 16.958203,38.69375 10.378348,36.356828 7.0326486,37.15854 5.2605468,40.216798 a 28,28 0 0 0 0.133984,0.369138 2.312583,1.9139592 75.246572 0 1 1.2878906,1.626954 2.312583,1.9139592 75.246572 0 1 -0.057422,1.547658 28,28 0 0 0 0.136718,0.303516 c 1.1002558,-3.57471 5.5246936,-3.306438 8.4218746,-2.250392 6.47775,2.361194 15.117316,7.834032 23.704298,10.453514 4.525432,1.380498 8.729678,0.21363 12.252734,-1.870312 2.156282,-1.275474 4.165426,-3.14843 5.739452,-5.610938 A 28,28 0 0 0 60,32 28,28 0 0 0 56.726952,18.905078 C 54.167522,15.080926 50.077806,12.00561 45.521484,9.8980468 40.530646,7.5894938 34.753246,6.4832718 28.538282,6.31875 Z"/>
 <path style="fill:#f4f4f7;opacity:0.2" d="M 32 4 C 27.398734 4.00724 22.869768 5.1482998 18.814453 7.3222656 C 18.738423 7.4583176 18.651243 7.5888055 18.552734 7.7109375 C 18.034984 8.3464687 17.278039 8.7078421 16.5625 8.6601562 C 8.7246456 13.840219 4.0062858 22.605056 4 32 C 4.0005509 32.143582 4.0148208 32.286213 4.0175781 32.429688 C 4.2106866 23.251922 8.8839263 14.73495 16.5625 9.6601562 C 17.278039 9.7078421 18.034984 9.3464687 18.552734 8.7109375 C 18.651243 8.5888055 18.738423 8.4583176 18.814453 8.3222656 C 22.869768 6.1482998 27.398734 5.00724 32 5 C 42.983908 5 52.489688 11.325151 57.076172 20.53125 C 58.877253 24.146423 59.634994 28.168508 59.689453 32.460938 C 59.691636 32.292486 59.701172 32.12608 59.701172 31.957031 C 59.701172 27.476967 58.946886 23.286192 57.076172 19.53125 C 52.489688 10.325151 42.983908 4 32 4 z M 6.7207031 43.416016 C 6.6968723 43.533984 6.6657143 43.648559 6.625 43.759766 C 6.6687667 43.85433 6.7208889 43.943197 6.765625 44.037109 C 6.7757086 43.832146 6.7585582 43.623483 6.7207031 43.416016 z"/>
 <path style="opacity:0.1" d="M 28.539062 5.3183594 C 27.024779 5.2782737 24.673085 5.5070651 22.123047 5.8222656 C 21.057158 6.2262323 20.014059 6.6964754 19 7.2304688 C 22.673262 6.7240587 26.416457 6.2621703 28.539062 6.3183594 C 34.754027 6.4828812 40.530646 7.5898845 45.521484 9.8984375 C 50.077806 12.006 54.167134 15.080145 56.726562 18.904297 A 28 28 0 0 1 57.890625 21.398438 C 57.644168 20.766078 57.38005 20.141202 57.076172 19.53125 C 56.190212 17.752931 55.118952 16.085337 53.890625 14.546875 C 51.54628 12.257804 48.65066 10.345863 45.521484 8.8984375 C 40.530646 6.5898845 34.754028 5.4828812 28.539062 5.3183594 z M 18.837891 7.3105469 C 18.830179 7.3146714 18.822161 7.3181337 18.814453 7.3222656 C 18.81419 7.322736 18.814716 7.3237485 18.814453 7.3242188 A 28 28 0 0 1 18.837891 7.3105469 z M 18.814453 7.3242188 C 18.741595 7.4544141 18.656001 7.5778062 18.5625 7.6953125 C 18.563802 7.6952688 18.565104 7.6953563 18.566406 7.6953125 A 1.9139592 2.312583 39.073308 0 0 18.814453 7.3242188 z M 57.966797 21.599609 A 28 28 0 0 1 58.394531 22.824219 C 58.263443 22.411435 58.120002 22.003782 57.966797 21.599609 z M 59.285156 32.105469 C 59.228887 33.934703 58.885792 35.869324 58.148438 37.902344 C 56.191415 43.29821 53.255698 45.69766 50.089844 47.570312 C 46.923994 49.44296 42.56562 49.778962 40.464844 49.007812 C 32.4159 46.053217 23.873475 40.149133 16.958984 37.693359 C 10.379129 35.356437 7.0318674 36.158539 5.2597656 39.216797 A 28 28 0 0 0 5.3945312 39.585938 A 2.312583 1.9139592 75.246572 0 1 5.5957031 39.695312 C 7.4441689 37.075468 10.771516 36.495798 16.958984 38.693359 C 23.873475 41.149133 32.4159 47.053217 40.464844 50.007812 C 42.56562 50.778962 46.923994 50.442961 50.089844 48.570312 C 53.255698 46.69766 56.191414 44.29821 58.148438 38.902344 C 59.021732 36.494514 59.339368 34.226272 59.285156 32.105469 z M 6.7226562 42.400391 A 2.312583 1.9139592 75.246572 0 1 6.71875 42.414062 C 6.7275934 42.462305 6.7398518 42.510245 6.7460938 42.558594 A 2.312583 1.9139592 75.246572 0 0 6.7226562 42.400391 z M 6.7578125 42.677734 C 6.7654043 42.76718 6.7688558 42.856621 6.7675781 42.945312 A 2.312583 1.9139592 75.246572 0 0 6.7578125 42.677734 z M 6.765625 43.039062 C 6.7652958 43.045655 6.7640505 43.05201 6.7636719 43.058594 C 6.7643321 43.056687 6.7649901 43.054778 6.765625 43.052734 A 2.312583 1.9139592 75.246572 0 0 6.765625 43.039062 z"/>
</svg>

<svg xmlns="http://www.w3.org/2000/svg" width="64" height="64"><path style="opacity:.2" d="M32 5a28 28 0 0 0-13.185 3.322 2.777 2.777 0 0 1-.263.389c-.517.635-1.275.996-1.99.948A28 28 0 0 0 4 33a28 28 0 0 0 1.38 8.578c.619.281 1.106.894 1.302 1.635a2.618 2.618 0 0 1-.057 1.548A28 28 0 0 0 32 61c10.93 0 20.397-6.263 25.01-15.395 1.912-3.789 2.69-8.114 2.69-12.648 0-4.48-.752-8.671-2.623-12.426C52.491 11.325 42.984 5 32 5z"/><path style="fill:#dee000" d="M32 4a28 28 0 0 0-13.185 3.322 2.777 2.777 0 0 1-.263.389c-.517.635-1.275.996-1.99.948A28 28 0 0 0 4 32a28 28 0 0 0 1.38 8.578c.619.281 1.106.894 1.302 1.635a2.618 2.618 0 0 1-.057 1.548A28 28 0 0 0 32 60c10.93 0 20.397-6.263 25.01-15.395 1.912-3.789 2.69-8.114 2.69-12.648 0-4.48-.752-8.671-2.623-12.426C52.491 10.325 42.984 4 32 4z"/><path style="fill:#f4f4f7" d="M28.538 6.319c-2.128-.057-5.887.408-9.57.916a28 28 0 0 0-.153.09 1.914 2.313 39.073 0 1-.263.386 1.914 2.313 39.073 0 1-1.977.948 28 28 0 0 0-.17.112c10.358-.56 21.582.36 29.034 3.807 5.05 2.335 8.963 5.62 11.168 9.947 2.204 4.327 3.914 9.837 1.542 16.377-1.957 5.395-4.893 7.796-8.058 9.668-3.166 1.873-7.525 2.21-9.625 1.439-8.05-2.955-16.593-8.86-23.508-11.315-6.58-2.337-9.925-1.535-11.697 1.523a28 28 0 0 0 .134.369 2.313 1.914 75.247 0 1 1.287 1.627 2.313 1.914 75.247 0 1-.057 1.548 28 28 0 0 0 .137.303c1.1-3.575 5.524-3.306 8.422-2.25 6.477 2.36 15.117 7.834 23.704 10.453 4.525 1.38 8.73.214 12.253-1.87 2.156-1.276 4.165-3.149 5.74-5.611A28 28 0 0 0 60 32a28 28 0 0 0-3.273-13.095c-2.56-3.824-6.65-6.9-11.206-9.007-4.99-2.309-10.768-3.415-16.983-3.58z"/><path style="fill:#f4f4f7;opacity:.2" d="M32 4a28.002 28.002 0 0 0-13.186 3.322 2.775 2.775 0 0 1-.261.389c-.518.635-1.275.997-1.99.95A28 28 0 0 0 4 32c0 .144.015.286.018.43A27.991 27.991 0 0 1 16.562 9.66c.716.048 1.473-.314 1.99-.95.1-.121.186-.252.262-.388A28.002 28.002 0 0 1 32 5c10.984 0 20.49 6.325 25.076 15.531 1.801 3.615 2.559 7.638 2.613 11.93.003-.169.012-.335.012-.504 0-4.48-.754-8.67-2.625-12.426C52.49 10.325 42.984 4 32 4zM6.72 43.416a2.351 2.351 0 0 1-.095.344c.044.094.096.183.14.277a2.722 2.722 0 0 0-.044-.621z"/><path style="opacity:.1" d="M28.54 5.318c-1.515-.04-3.867.19-6.417.504A28.002 28.002 0 0 0 19 7.23c3.673-.506 7.416-.968 9.54-.912 6.214.165 11.99 1.272 16.981 3.58 4.557 2.108 8.646 5.182 11.206 9.006a28 28 0 0 1 1.164 2.494 22.47 22.47 0 0 0-.815-1.867 28.006 28.006 0 0 0-3.185-4.984c-2.345-2.29-5.24-4.201-8.37-5.649-4.99-2.308-10.767-3.415-16.982-3.58zm-9.702 1.993-.024.011v.002a28 28 0 0 1 .024-.013zm-.024.013c-.072.13-.158.254-.252.371h.004a1.914 2.313 39.073 0 0 .248-.37zM57.967 21.6a28 28 0 0 1 .428 1.224 23.65 23.65 0 0 0-.428-1.224zm1.318 10.505c-.056 1.83-.4 3.764-1.137 5.797-1.957 5.396-4.892 7.796-8.058 9.668-3.166 1.873-7.524 2.209-9.625 1.438-8.05-2.955-16.592-8.859-23.506-11.315-6.58-2.337-9.927-1.534-11.7 1.524a28 28 0 0 0 .136.369 2.313 1.914 75.247 0 1 .2.11c1.85-2.62 5.177-3.2 11.364-1.003 6.914 2.456 15.457 8.36 23.506 11.315 2.1.771 6.459.435 9.625-1.438 3.166-1.872 6.101-4.272 8.058-9.668.874-2.407 1.191-4.676 1.137-6.797zM6.723 42.4a2.313 1.914 75.247 0 1-.004.014c.009.048.02.096.027.145a2.313 1.914 75.247 0 0-.023-.159zm.035.278c.007.09.01.179.01.267a2.313 1.914 75.247 0 0-.01-.267zm.008.361-.002.02.002-.006a2.313 1.914 75.247 0 0 0-.014z"/></svg>
